X:150
M:4/4
L:1/4
K:F
c | d3/2 c/ B A | G2 G z/ A/ | B A G3/2 A/ | F2 z c | d3/2 c/ B A | G2 G z/ A/ | B A G3/2 A/ | F2 z A | A A G F | E3 A | A3/2 G/ A B | c2 A z/ !sintro!F/ | A3/2 G/ A B | c2 A z/ A/ | G F F E | F3 !eintro!|]
